common/src/main/resources/icons/actions/showHiddens.svg

<svg xmlns="http://www.w3.org/2000/svg" width="16" height="16" data-big="true" viewBox="0 0 24 24"><path fill="#AB7967" d="M2 4a2 2 0 0 1 2-2h3v2H4v3H2zm20 0v3h-2V4h-3V2h3a2 2 0 0 1 2 2m-2 16v-3h2v3a2 2 0 0 1-2 2h-3v-2zM2 20v-3h2v3h3v2H4a2 2 0 0 1-2-2m8-18h4v2h-4zm0 18h4v2h-4zm10-10h2v4h-2zM2 10h2v4H2z"/></svg>

<!--
  - The MIT License (MIT)
  -
  - Copyright (c) 2015-2024 Elior "Mallowigi" Boukhobza
  -
  - Permission is hereby granted, free of charge, to any person obtaining a copy
  - of this software and associated documentation files (the "Software"), to deal
  - in the Software without restriction, including without limitation the rights
  - to use, copy, modify, merge, publish, distribute, sublicense, and/or sell
  - copies of the Software, and to permit persons to whom the Software is
  - furnished to do so, subject to the following conditions:
  -
  - The above copyright notice and this permission notice shall be included in all
  - copies or substantial portions of the Software.
  -
  - THE SOFTWARE IS PROVIDED "AS IS", WITHOUT WARRANTY OF ANY KIND, EXPRESS OR
  - IMPLIED, INCLUDING BUT NOT LIMITED TO THE WARRANTIES OF MERCHANTABILITY,
  - FITNESS FOR A PARTICULAR PURPOSE AND NONINFRINGEMENT. IN NO EVENT SHALL THE
  - AUTHORS OR COPYRIGHT HOLDERS BE LIABLE FOR ANY CLAIM, DAMAGES OR OTHER
  - LIABILITY, WHETHER IN AN ACTION OF CONTRACT, TORT OR OTHERWISE, ARISING FROM,
  - OUT OF OR IN CONNECTION WITH THE SOFTWARE OR THE USE OR OTHER DEALINGS IN THE
  - SOFTWARE.
  -->


<svg data-big="true" xmlns="http://www.w3.org/2000/svg" version="1.1" width="16px" height="16px" viewBox="0 0 24 24">
  <path fill="#AB7967"
        d="M2,4C2,2.89 2.9,2 4,2H7V4H4V7H2V4M22,4V7H20V4H17V2H20A2,2 0 0,1 22,4M20,20V17H22V20C22,21.11 21.1,22 20,22H17V20H20M2,20V17H4V20H7V22H4A2,2 0 0,1 2,20M10,2H14V4H10V2M10,20H14V22H10V20M20,10H22V14H20V10M2,10H4V14H2V10Z"/>
</svg>
